polaris-icons/icons/ImageAddIcon.svg

<svg xmlns="http://www.w3.org/2000/svg" viewBox="0 0 20 20"><path d="M9.0179 3.5H10.9821C11.7949 3.49999 12.4506 3.49999 12.9815 3.54336C13.5281 3.58803 14.0082 3.68239 14.4525 3.90873C15.1581 4.26825 15.7317 4.84193 16.0913 5.54754C16.3176 5.99175 16.412 6.4719 16.4566 7.01853C16.5 7.54944 16.5 8.20505 16.5 9.01788V10C16.5 10.4142 16.1642 10.75 15.75 10.75C15.3358 10.75 15 10.4142 15 10V9.05C15 8.19755 14.9994 7.60331 14.9616 7.14068C14.9245 6.68681 14.8554 6.42604 14.7548 6.22852C14.5391 5.80516 14.1948 5.46095 13.7715 5.24524C13.574 5.1446 13.3132 5.07547 12.8593 5.03838C12.3967 5.00058 11.8025 5 10.95 5H9.05C8.19755 5 7.60331 5.00058 7.14068 5.03838C6.68681 5.07547 6.42604 5.1446 6.22852 5.24524C5.80516 5.46095 5.46095 5.80516 5.24524 6.22852C5.1446 6.42604 5.07547 6.68681 5.03838 7.14068C5.00058 7.60331 5 8.19755 5 9.05V10.4393L6.01256 9.42678C6.69598 8.74336 7.80402 8.74336 8.48744 9.42678L11.0303 11.9697C11.3232 12.2626 11.3232 12.7374 11.0303 13.0303C10.7374 13.3232 10.2626 13.3232 9.96967 13.0303L7.42678 10.4874C7.32915 10.3898 7.17085 10.3898 7.07322 10.4874L5.01882 12.5418C5.02387 12.6546 5.03027 12.76 5.03838 12.8593C5.07547 13.3132 5.1446 13.574 5.24524 13.7715C5.46095 14.1948 5.80516 14.5391 6.22852 14.7548C6.42604 14.8554 6.68681 14.9245 7.14068 14.9616C7.60331 14.9994 8.19755 15 9.05 15H10C10.4142 15 10.75 15.3358 10.75 15.75C10.75 16.1642 10.4142 16.5 10 16.5H9.01788C8.20505 16.5 7.54944 16.5 7.01853 16.4566C6.4719 16.412 5.99176 16.3176 5.54754 16.0913C4.84193 15.7317 4.26825 15.1581 3.90873 14.4525C3.68239 14.0082 3.58803 13.5281 3.54336 12.9815C3.52837 12.7979 3.51856 12.5995 3.51214 12.3848C3.49811 12.3076 3.49624 12.2286 3.50653 12.151C3.49999 11.8026 3.5 11.4146 3.5 10.9821V9.0179C3.49999 8.20506 3.49999 7.54944 3.54336 7.01853C3.58803 6.4719 3.68239 5.99175 3.90873 5.54754C4.26825 4.84193 4.84193 4.26825 5.54754 3.90873C5.99176 3.68239 6.4719 3.58803 7.01853 3.54336C7.54944 3.49999 8.20506 3.49999 9.0179 3.5Z"/>
<path d="M12.5 9C13.3284 9 14 8.32843 14 7.5C14 6.67157 13.3284 6 12.5 6C11.6716 6 11 6.67157 11 7.5C11 8.32843 11.6716 9 12.5 9Z"/>
<path d="M14.5 11.25C14.9142 11.25 15.25 11.5858 15.25 12V13.75H17C17.4142 13.75 17.75 14.0858 17.75 14.5C17.75 14.9142 17.4142 15.25 17 15.25H15.25V17C15.25 17.4142 14.9142 17.75 14.5 17.75C14.0858 17.75 13.75 17.4142 13.75 17V15.25H12C11.5858 15.25 11.25 14.9142 11.25 14.5C11.25 14.0858 11.5858 13.75 12 13.75H13.75V12C13.75 11.5858 14.0858 11.25 14.5 11.25Z"/>
</svg>

<svg xmlns="http://www.w3.org/2000/svg" viewBox="0 0 20 20"><path d="M9.018 3.5h1.964c.813 0 1.469 0 2 .043.546.045 1.026.14 1.47.366a3.75 3.75 0 0 1 1.64 1.639c.226.444.32.924.365 1.47.043.531.043 1.187.043 2v.232a.75.75 0 0 1-1.5 0v-.2c0-.852 0-1.447-.038-1.91-.037-.453-.107-.714-.207-.911a2.25 2.25 0 0 0-.984-.984c-.197-.1-.458-.17-.912-.207-.462-.037-1.056-.038-1.909-.038h-1.9c-.852 0-1.447 0-1.91.038-.453.037-.714.107-.911.207a2.25 2.25 0 0 0-.984.984c-.1.197-.17.458-.207.912-.037.462-.038 1.057-.038 1.909v1.39l1.013-1.013a1.75 1.75 0 0 1 2.474 0l2.763 2.762 1.47-1.47a.75.75 0 1 1 1.06 1.061l-2 2a.75.75 0 0 1-1.06 0l-3.293-3.293a.25.25 0 0 0-.354 0l-2.054 2.055c.005.113.011.218.02.317.036.454.106.715.206.912.216.424.56.768.984.984.197.1.458.17.912.207.462.037 1.057.038 1.909.038h1.2a.75.75 0 0 1 0 1.5h-1.232c-.813 0-1.469 0-2-.043-.546-.045-1.026-.14-1.47-.366a3.75 3.75 0 0 1-1.64-1.639c-.226-.444-.32-.924-.365-1.47a11.671 11.671 0 0 1-.03-.597.754.754 0 0 1-.006-.234c-.007-.348-.007-.736-.007-1.169v-1.964c0-.813 0-1.469.043-2 .045-.546.14-1.026.366-1.47a3.75 3.75 0 0 1 1.639-1.64c.444-.226.924-.32 1.47-.365.531-.043 1.187-.043 2-.043Z"/><path d="M12.5 9a1.5 1.5 0 1 0 0-3 1.5 1.5 0 0 0 0 3Z"/><path d="M15.75 11.25a.75.75 0 0 1 .75.75v1.75h1.75a.75.75 0 0 1 0 1.5h-1.75v1.75a.75.75 0 0 1-1.5 0v-1.75h-1.75a.75.75 0 0 1 0-1.5h1.75v-1.75a.75.75 0 0 1 .75-.75Z"/></svg>
